X: 18492
T: I Always Knew You Were The One
R: waltz
M: 3/4
K: Dmajor
A2|:d6|c4 A2|F2- FE FG|F4 A2|d6|c4 A2|G2- GF GA|G4 A2|
c4 d2|c2 B2 A2|E2- ED EF|E4 A2|c4 A2|E4A2|F6-|F4 A2|
d6|c4 A2|F2- FE FG|F4 A2|f4 a2|f2 e2 d2|B6-|B4 Bc|
d6|e4 a2|f2 d2 B2|A2 F2 A2|B4 d2|c4 f2|d6-|1 d4 A2:|2 d4 a2||
|:g2 e2 c2|A4 g2|f2- fe dB|A4 a2|g2 e2 c2|A4 g2|f6-|f4 af|
g2 e2 c2|A4 g2|f2- fe dB|A2 F2 A2|B4 d2|c4 f2|d6-|1 d4 a2:|2 d6||

